T: Larach Alastair
M: 6/8
L: 1/8
K: Amix
|: (3AAA a>e f>de>A | (3AAA a>e g<ed>G | |: A>ec>e A>f (3ecA | A<ec>e B<gd>G |[2 A2 (3cBA d>eg>e | (3agf g>e d<gd<G ||
